lib/flags/sg-singapore.svg

<svg xmlns="http://www.w3.org/2000/svg" fill="none" aria-hidden="true" viewBox="0 0 42 30"><g id="Country=SG - Singapore, Size=sm (36x24)" filter="url(#filter0_dd_91_25223)"><g clip-path="url(#clip0_91_25223)"><g id="flag"><mask id="mask0_91_25223" width="36" height="24" x="3" y="2" maskUnits="userSpaceOnUse" style="mask-type:alpha"><rect id="mask" width="36" height="24" x="3" y="2" fill="white"/></mask><g mask="url(#mask0_91_25223)"><g id="contents"><path id="background" fill="#F7FCFF" fill-rule="evenodd" d="M3 2V26H39V2H3Z" clip-rule="evenodd"/><mask id="mask1_91_25223" width="36" height="24" x="3" y="2" maskUnits="userSpaceOnUse" style="mask-type:alpha"><path id="background_2" fill="white" fill-rule="evenodd" d="M3 2V26H39V2H3Z" clip-rule="evenodd"/></mask><g mask="url(#mask1_91_25223)"><path id="top" fill="#E31D1C" fill-rule="evenodd" d="M3 2V14H39V2H3Z" clip-rule="evenodd"/><path id="mark" fill="#F1F9FF" fill-rule="evenodd" d="M12.9771 12.5896C12.9771 12.5896 9.79825 11.4531 9.79825 8.37399C9.79825 5.29492 12.9771 4.19514 12.9771 4.19514C11.4321 3.84747 7.33252 4.15843 7.33252 8.37399C7.33252 12.5896 11.3702 13.3846 12.9771 12.5896ZM13.7916 12.0806L14.7036 11.5912L15.6356 12.0806L15.4075 11.1257L16.1652 10.3723H15.1386L14.7036 9.48062L14.2685 10.3723L13.2402 10.411L13.9996 11.1257L13.7916 12.0806ZM18.0181 11.5366L17.1062 12.026L17.3142 11.071L16.5548 10.3563L17.5831 10.3177L18.0181 9.42596L18.4532 10.3177H19.4798L18.7221 11.071L18.9502 12.026L18.0181 11.5366ZM15.6983 7.76986L16.6102 7.28049L17.5423 7.76986L17.3142 6.8149L18.0719 6.06156H17.0453L16.6102 5.16986L16.1752 6.06156L15.1469 6.1002L15.9063 6.8149L15.6983 7.76986ZM13.5412 9.22263L12.6293 9.712L12.8373 8.75704L12.0778 8.04234L13.1061 8.0037L13.5412 7.112L13.9763 8.0037H15.0028L14.2452 8.75704L14.4733 9.712L13.5412 9.22263ZM18.6575 9.66815L19.5694 9.17877L20.5015 9.66815L20.2733 8.71318L21.031 7.95984H20.0045L19.5694 7.06815L19.1343 7.95984L18.106 7.99849L18.8655 8.71318L18.6575 9.66815Z" clip-rule="evenodd"/></g></g></g></g></g></g><defs><filter id="filter0_dd_91_25223" width="42" height="30" x="0" y="0" color-interpolation-filters="sRGB" filterUnits="userSpaceOnUse"><feFlood flood-opacity="0" result="BackgroundImageFix"/><feColorMatrix in="SourceAlpha" result="hardAlpha" values="0 0 0 0 0 0 0 0 0 0 0 0 0 0 0 0 0 0 127 0"/><feOffset dy="1"/><feGaussianBlur stdDeviation="1"/><feColorMatrix values="0 0 0 0 0.0627451 0 0 0 0 0.0941176 0 0 0 0 0.156863 0 0 0 0.06 0"/><feBlend in2="BackgroundImageFix" result="effect1_dropShadow_91_25223"/><feColorMatrix in="SourceAlpha" result="hardAlpha" values="0 0 0 0 0 0 0 0 0 0 0 0 0 0 0 0 0 0 127 0"/><feOffset dy="1"/><feGaussianBlur stdDeviation="1.5"/><feColorMatrix values="0 0 0 0 0.0627451 0 0 0 0 0.0941176 0 0 0 0 0.156863 0 0 0 0.1 0"/><feBlend in2="effect1_dropShadow_91_25223" result="effect2_dropShadow_91_25223"/><feBlend in="SourceGraphic" in2="effect2_dropShadow_91_25223" result="shape"/></filter><clipPath id="clip0_91_25223"><rect width="36" height="24" x="3" y="2" fill="white" rx="2"/></clipPath></defs></svg>

<svg xmlns="http://www.w3.org/2000/svg" fill="none" aria-hidden="true" viewBox="0 0 42 30"><g filter="url(#a)"><g clip-path="url(#b)"><mask id="c" width="36" height="24" x="3" y="2" maskUnits="userSpaceOnUse" style="mask-type:alpha"><path fill="#fff" d="M3 2h36v24H3z"/></mask><g mask="url(#c)"><path fill="#F7FCFF" fill-rule="evenodd" d="M3 2v24h36V2H3Z" clip-rule="evenodd"/><mask id="d" width="36" height="24" x="3" y="2" maskUnits="userSpaceOnUse" style="mask-type:alpha"><path fill="#fff" fill-rule="evenodd" d="M3 2v24h36V2H3Z" clip-rule="evenodd"/></mask><g fill-rule="evenodd" clip-rule="evenodd" mask="url(#d)"><path fill="#E31D1C" d="M3 2v12h36V2H3Z"/><path fill="#F1F9FF" d="M12.977 12.59s-3.179-1.137-3.179-4.216c0-3.08 3.18-4.179 3.18-4.179-1.546-.348-5.645-.037-5.645 4.179s4.037 5.01 5.644 4.216Zm.815-.51.912-.489.932.49-.228-.955.757-.754H15.14l-.435-.891-.436.891-1.028.039.76.715-.208.955Zm4.226-.543-.912.489.208-.955-.76-.715 1.03-.038.434-.892.435.892h1.027l-.758.753.228.955-.932-.49Zm-2.32-3.767.912-.49.932.49-.228-.955.758-.753h-1.027l-.435-.892-.435.892-1.028.038.76.715-.209.955Zm-2.157 1.453-.912.489.208-.955-.76-.715 1.03-.038.434-.892.435.892h1.027l-.758.753.228.955-.932-.49Zm5.116.445.912-.49.933.49-.229-.955.758-.753h-1.026l-.436-.892-.435.892-1.028.038.76.715-.209.955Z"/></g></g></g></g><defs><clipPath id="b"><rect width="36" height="24" x="3" y="2" fill="#fff" rx="2"/></clipPath><filter id="a" width="42" height="30" x="0" y="0" color-interpolation-filters="sRGB" filterUnits="userSpaceOnUse"><feFlood flood-opacity="0" result="BackgroundImageFix"/><feColorMatrix in="SourceAlpha" result="hardAlpha" values="0 0 0 0 0 0 0 0 0 0 0 0 0 0 0 0 0 0 127 0"/><feOffset dy="1"/><feGaussianBlur stdDeviation="1"/><feColorMatrix values="0 0 0 0 0.0627451 0 0 0 0 0.0941176 0 0 0 0 0.156863 0 0 0 0.06 0"/><feBlend in2="BackgroundImageFix" result="effect1_dropShadow_91_25223"/><feColorMatrix in="SourceAlpha" result="hardAlpha" values="0 0 0 0 0 0 0 0 0 0 0 0 0 0 0 0 0 0 127 0"/><feOffset dy="1"/><feGaussianBlur stdDeviation="1.5"/><feColorMatrix values="0 0 0 0 0.0627451 0 0 0 0 0.0941176 0 0 0 0 0.156863 0 0 0 0.1 0"/><feBlend in2="effect1_dropShadow_91_25223" result="effect2_dropShadow_91_25223"/><feBlend in="SourceGraphic" in2="effect2_dropShadow_91_25223" result="shape"/></filter></defs></svg>
